X: 12971
T: Fiddlers' Contest, The
R: hornpipe
M: 4/4
K: Gmajor
|:Bc|d^cde dBGB|cdef gfge|d/d/d ^ce dBGB|AFGE D2Bc|
d^cde dBGB|cdef gfge|d2fe dcBA|G2 F/G/A G2:|
|:GE|DGGA B/A/G dG|EAAB c/B/A eA|B/c/d ef gfge|dcBA GFEF|
DGGA B/A/G dG|AGAB cdef|gfge dcBA|BGGF G2:|

